X:1
T:Krakowiak  #2
O:oprac. muz.: K. Kopi\'nski
R:krakowiak
S:handwritten MS of unknown origin
N:"Polskie ta\'nce regionalne i narodove"
Z:2009 John Chambers <jc:trillian.mit.edu>
M:2/4
L:1/16
K:G
"^intro"d2de d2de | d2c2 B2A2 \
"A"\
[| !Segno!\
  D2G2 G2G2 | GF A4 E2 \
| GF A4 E2 | GF A4 E2 \
| D2B2 B2B2 | BA c4 B2 \
| BA E4 F2 | G2B2 kd4 |
| D2G2 G2G2 | GF A4 E2 \
| D2B2 B2B2 | B^A ^c4 G2 \
| F2d2 d2d2 | d_d c4 B2 \
| BAEG F2A2 | G4 G4 \
"B"\
|: [K:=f][K:C] G4 c3B | d2c2 z2cd |
| e2d2 c3B | B2A4 z2 \
| A4 d3^c | e2 d4 de \
| f2d2 A2B2 |1 c2e2 g4 :|2 c4 "fine"c4 |]\
"C"\
|: G3f f2d2 | e2 c4 BA \
| G3G A2B2 | c4 e4 |
| G3f f2d2 | e2 c4 BA \
| G3G A2B2 | c4 c4 :| \
"D"\
|: [K:G]\
  D3c c2A2 | B2 G4 FE \
| D3D E2F2 | G4 B4 \
| D3c c2A2 | B2 G4 FE \
| D3D E2F2 G4 G4 :|
"E"\
[| B2 d4 ^c2 | d2^c2 d4 \
| c2 e4 ^d2 | e2f2 g4 \
| B2 d4 ^c2 | e2dB G4 \
| A2 c4 F2 | GFGB G4 \
|| A2 c4 F2 | G2GB d4 \
| e2 g4 fe | e2dB G4 |
| A2 c4 F2 | GFGB d4 \
| A2 c4 F2 | GFGB G4 \
"F"\
|[| F2A2 c3e | d2 B4 d2 \
| ^cded =c3A | G2 B4 (3GAG \
| F2A2 c3e | d2 B4 d2 |
| ^cded =c2A2 | G2B2 G4 \
|| c2e2 g3e | d2 B4 d2 \
| ^cded =c3A | G2 B4 d2 \
| c2e2 g3e | d2 B4 d2 \
| ^cded =c2A2 | G2z2 !Segno!G4 |]
